src/assets/desktop/logo.svg

<?xml version="1.0" encoding="UTF-8"?>
<svg width="175px" height="26px" viewBox="0 0 175 26" version="1.1" xmlns="http://www.w3.org/2000/svg" xmlns:xlink="http://www.w3.org/1999/xlink">
    <!-- Generator: Sketch 47.1 (45422) - http://www.bohemiancoding.com/sketch -->
    <title>logo</title>
    <desc>Created with Sketch.</desc>
    <defs></defs>
    <g id="Page-1" stroke="none" stroke-width="1" fill="none" fill-rule="evenodd">
        <g id="assets" transform="translate(-19.000000, -24.000000)">
            <g id="logo" transform="translate(19.000000, 24.000000)">
                <path d="M6.468,13.328 L3.052,21 L0.56,21 L4.312,12.796 C3.43466228,12.3479978 2.72533604,11.6900043 2.184,10.822 C1.64266396,9.95399566 1.372,8.7733408 1.372,7.28 C1.372,6.23466144 1.52599846,5.3153373 1.834,4.522 C2.14200154,3.7286627 2.56199734,3.07066928 3.094,2.548 C3.62600266,2.02533072 4.24666312,1.63333464 4.956,1.372 C5.66533688,1.11066536 6.41199608,0.98 7.196,0.98 L10.416,0.98 L10.416,21 L8.26,21 L8.26,13.328 L6.468,13.328 Z M8.26,2.8 L7.112,2.8 C6.68266452,2.8 6.26266872,2.87933254 5.852,3.038 C5.44133128,3.19666746 5.07733492,3.44866494 4.76,3.794 C4.44266508,4.13933506 4.18600098,4.59666382 3.99,5.166 C3.79399902,5.73533618 3.696,6.4399958 3.696,7.28 C3.696,8.08267068 3.78466578,8.75466396 3.962,9.296 C4.13933422,9.83733604 4.38199846,10.2759983 4.69,10.612 C4.99800154,10.9480017 5.3619979,11.1859993 5.782,11.326 C6.2020021,11.4660007 6.645331,11.536 7.112,11.536 L8.26,11.536 L8.26,2.8 Z" id="Яндекс-Переговорки" fill="#FF3029"></path>
                <path d="M32.032,23.772 L30.072,23.772 L30.072,21 L24.024,21 L24.024,23.772 L22.064,23.772 L22.064,19.208 L22.932,19.208 C23.2493349,18.4613296 23.5013324,17.6353379 23.688,16.73 C23.8746676,15.8246621 24.0193328,14.8913381 24.122,13.93 C24.2246672,12.9686619 24.2899999,11.9886717 24.318,10.99 C24.3460001,9.99132834 24.36,9.025338 24.36,8.092 L24.36,6.888 L30.912,6.888 L30.912,19.208 L32.032,19.208 L32.032,23.772 Z M41.524,20.048 C41.0759978,20.4026684 40.5626696,20.6826656 39.984,20.888 C39.4053304,21.0933344 38.7613369,21.196 38.052,21.196 C36.5959927,21.196 35.4480042,20.631339 34.608,19.502 C33.7679958,18.372661 33.348,16.7160109 33.348,14.532 C33.348,13.3933276 33.4273325,12.3480048 33.586,11.396 C33.7446675,10.4439952 33.9966649,9.6180035 34.342,8.918 C34.6873351,8.2179965 35.130664,7.67200196 35.672,7.28 C36.213336,6.88799804 36.8573296,6.692 37.604,6.692 C38.1826696,6.692 38.7146642,6.8086655 39.2,7.042 C39.6853358,7.2753345 40.0959983,7.65333072 40.432,8.176 C40.7680017,8.69866928 41.0293324,9.37532918 41.216,10.206 C41.4026676,11.0366708 41.496,12.0493274 41.496,13.244 L41.496,14.448 L35.616,14.448 C35.616,16.0533414 35.8353311,17.2666626 36.274,18.088 C36.7126689,18.9093374 37.3706623,19.32 38.248,19.32 C38.8640031,19.32 39.4099976,19.2126677 39.886,18.998 C40.3620024,18.7833323 40.7399986,18.5733344 41.02,18.368 L41.524,20.048 Z M20.804,6.888 L20.804,21 L18.648,21 L18.648,14.672 L15.4,14.672 L15.4,21 L13.216,21 L13.216,6.888 L15.4,6.888 L15.4,12.88 L18.648,12.88 L18.648,6.888 L20.804,6.888 Z M45.92,13.972 L45.92,21 L43.736,21 L43.736,6.888 L45.92,6.888 L45.92,13.412 L49.308,6.888 L51.52,6.888 L48.02,13.524 L52.024,21 L49.644,21 L45.92,13.972 Z M57.148,21.196 C55.6359924,21.196 54.450671,20.594006 53.592,19.39 C52.733329,18.185994 52.304,16.3706788 52.304,13.944 C52.304,12.8426612 52.4113323,11.8440045 52.626,10.948 C52.8406677,10.0519955 53.1579979,9.29133646 53.578,8.666 C53.9980021,8.04066354 54.5206635,7.55533506 55.146,7.21 C55.7713365,6.86466494 56.4946626,6.692 57.316,6.692 C57.9506698,6.692 58.463998,6.7619993 58.856,6.902 C59.248002,7.0420007 59.6026651,7.21466564 59.92,7.42 L59.612,9.492 C59.3133318,9.23066536 58.9633353,9.00200098 58.562,8.806 C58.1606647,8.60999902 57.7360022,8.512 57.288,8.512 C56.5039961,8.512 55.8600025,8.95066228 55.356,9.828 C54.8519975,10.7053377 54.6,12.039991 54.6,13.832 C54.6,15.6053422 54.8099979,16.9726619 55.23,17.934 C55.6500021,18.8953381 56.3079955,19.376 57.204,19.376 C57.745336,19.376 58.211998,19.2873342 58.604,19.11 C58.996002,18.9326658 59.3226654,18.7320011 59.584,18.508 L60.088,20.132 C59.7146648,20.4493349 59.294669,20.705999 58.828,20.902 C58.361331,21.098001 57.8013366,21.196 57.148,21.196 Z M28.756,8.652 L26.32,8.652 L26.32,8.904 C26.32,9.6506704 26.3060001,10.4673289 26.278,11.354 C26.2499999,12.2406711 26.1893338,13.1413288 26.096,14.056 C26.0026662,14.9706712 25.8720008,15.8713289 25.704,16.758 C25.5359992,17.6446711 25.3026682,18.4613296 25.004,19.208 L28.756,19.208 L28.756,8.652 Z M37.604,8.484 C36.9319966,8.484 36.4560014,8.86199622 36.176,9.618 C35.8959986,10.3740038 35.718667,11.3866603 35.644,12.656 L39.256,12.656 C39.256,12.0586637 39.2280003,11.5033359 39.172,10.99 C39.1159997,10.4766641 39.0273339,10.0333352 38.906,9.66 C38.7846661,9.2866648 38.6166677,8.99733436 38.402,8.792 C38.1873323,8.58666564 37.9213349,8.484 37.604,8.484 Z M74.172,2.128 L68.208,2.128 L68.208,21 L66.808,21 L66.808,0.98 L75.572,0.98 L75.572,21 L74.172,21 L74.172,2.128 Z M79.296,14.168 C79.3333335,16.109343 79.6039975,17.5886616 80.108,18.606 C80.6120025,19.6233384 81.3773282,20.132 82.404,20.132 C82.870669,20.132 83.2813316,20.0573341 83.636,19.908 C83.9906684,19.7586659 84.2893321,19.5813344 84.532,19.376 C84.8120014,19.1706656 85.0546656,18.9186682 85.26,18.62 L85.68,19.684 C85.4559989,20.0013349 85.1853349,20.2719989 84.868,20.496 C84.5879986,20.7013344 84.2426687,20.8833325 83.832,21.042 C83.4213313,21.2006675 82.9360028,21.28 82.376,21.28 C80.8826592,21.28 79.7813369,20.6360064 79.072,19.348 C78.3626631,18.0599936 78.008,16.2586782 78.008,13.944 C78.008,12.7866609 78.1106656,11.7553379 78.316,10.85 C78.5213344,9.94466214 78.8059982,9.17466984 79.17,8.54 C79.5340018,7.90533016 79.9679975,7.4246683 80.472,7.098 C80.9760025,6.7713317 81.5266637,6.608 82.124,6.608 C82.7400031,6.608 83.2906642,6.76666508 83.776,7.084 C84.2613358,7.40133492 84.6626651,7.87733016 84.98,8.512 C85.2973349,9.14666984 85.5213327,9.93532862 85.652,10.878 C85.7826673,11.8206714 85.7920006,12.9173271 85.68,14.168 L79.296,14.168 Z M82.124,7.7 C81.3773296,7.7 80.7380027,8.16199538 80.206,9.086 C79.6739973,10.0100046 79.3800003,11.3586578 79.324,13.132 L84.448,13.132 C84.5600006,11.2466572 84.3780024,9.87000434 83.902,9.002 C83.4259976,8.13399566 82.8333369,7.7 82.124,7.7 Z M92.092,20.216 C92.9880045,20.216 93.706664,19.6793387 94.248,18.606 C94.789336,17.5326613 95.06,15.8760112 95.06,13.636 C95.06,11.769324 94.826669,10.3226718 94.36,9.296 C93.893331,8.2693282 93.2493374,7.756 92.428,7.756 C92.1106651,7.756 91.8073348,7.83533254 91.518,7.994 C91.2286652,8.15266746 90.9580013,8.36266536 90.706,8.624 C90.4539987,8.88533464 90.2253344,9.18866494 90.02,9.534 C89.8146656,9.87933506 89.6373341,10.2386648 89.488,10.612 L89.488,18.508 C89.7680014,19.0866696 90.1133313,19.5159986 90.524,19.796 C90.9346687,20.0760014 91.4573302,20.216 92.092,20.216 Z M92.008,21.252 C91.466664,21.252 90.9766689,21.1353345 90.538,20.902 C90.0993311,20.6686655 89.7493346,20.3746684 89.488,20.02 L89.488,25.368 L88.172,25.368 L88.172,6.888 L89.32,6.888 L89.432,9.212 C89.7493349,8.53999664 90.1693307,7.93800266 90.692,7.406 C91.2146693,6.87399734 91.8679961,6.608 92.652,6.608 C93.2306696,6.608 93.753331,6.77599832 94.22,7.112 C94.686669,7.44800168 95.0786651,7.9193303 95.396,8.526 C95.7133349,9.1326697 95.9559992,9.86066242 96.124,10.71 C96.2920008,11.5593376 96.376,12.4973282 96.376,13.524 C96.376,16.1186796 95.9746707,18.0553269 95.172,19.334 C94.3693293,20.6126731 93.3146732,21.252 92.008,21.252 Z M99.456,14.168 C99.4933335,16.109343 99.7639975,17.5886616 100.268,18.606 C100.772003,19.6233384 101.537328,20.132 102.564,20.132 C103.030669,20.132 103.441332,20.0573341 103.796,19.908 C104.150668,19.7586659 104.449332,19.5813344 104.692,19.376 C104.972001,19.1706656 105.214666,18.9186682 105.42,18.62 L105.84,19.684 C105.615999,20.0013349 105.345335,20.2719989 105.028,20.496 C104.747999,20.7013344 104.402669,20.8833325 103.992,21.042 C103.581331,21.2006675 103.096003,21.28 102.536,21.28 C101.042659,21.28 99.9413369,20.6360064 99.232,19.348 C98.5226631,18.0599936 98.168,16.2586782 98.168,13.944 C98.168,12.7866609 98.2706656,11.7553379 98.476,10.85 C98.6813344,9.94466214 98.9659982,9.17466984 99.33,8.54 C99.6940018,7.90533016 100.127997,7.4246683 100.632,7.098 C101.136003,6.7713317 101.686664,6.608 102.284,6.608 C102.900003,6.608 103.450664,6.76666508 103.936,7.084 C104.421336,7.40133492 104.822665,7.87733016 105.14,8.512 C105.457335,9.14666984 105.681333,9.93532862 105.812,10.878 C105.942667,11.8206714 105.952001,12.9173271 105.84,14.168 L99.456,14.168 Z M102.284,7.7 C101.53733,7.7 100.898003,8.16199538 100.366,9.086 C99.8339973,10.0100046 99.5400003,11.3586578 99.484,13.132 L104.608,13.132 C104.720001,11.2466572 104.538002,9.87000434 104.062,9.002 C103.585998,8.13399566 102.993337,7.7 102.284,7.7 Z M109.62,7.98 L109.62,21 L108.332,21 L108.332,6.888 L114.296,6.888 L114.296,7.98 L109.62,7.98 Z M119.728,21.28 C119.111997,21.28 118.542669,21.1260015 118.02,20.818 C117.497331,20.5099985 117.044669,20.0573363 116.662,19.46 C116.279331,18.8626637 115.976001,18.1113379 115.752,17.206 C115.527999,16.3006621 115.416,15.2413394 115.416,14.028 C115.416,12.8519941 115.527999,11.8020046 115.752,10.878 C115.976001,9.95399538 116.279331,9.17933646 116.662,8.554 C117.044669,7.92866354 117.497331,7.44800168 118.02,7.112 C118.542669,6.77599832 119.111997,6.608 119.728,6.608 C120.344003,6.608 120.913331,6.75733184 121.436,7.056 C121.958669,7.35466816 122.411331,7.8073303 122.794,8.414 C123.176669,9.0206697 123.479999,9.77666214 123.704,10.682 C123.928001,11.5873379 124.04,12.6466606 124.04,13.86 C124.04,15.0360059 123.928001,16.0813288 123.704,16.996 C123.479999,17.9106712 123.176669,18.6853302 122.794,19.32 C122.411331,19.9546698 121.958669,20.4399983 121.436,20.776 C120.913331,21.1120017 120.344003,21.28 119.728,21.28 Z M119.728,20.216 C120.549337,20.216 121.253997,19.7026718 121.842,18.676 C122.430003,17.6493282 122.724,16.0720106 122.724,13.944 C122.724,12.8426612 122.644667,11.8953373 122.486,11.102 C122.327333,10.3086627 122.112668,9.66000252 121.842,9.156 C121.571332,8.65199748 121.254002,8.2833345 120.89,8.05 C120.525998,7.8166655 120.138669,7.7 119.728,7.7 C118.906663,7.7 118.202003,8.20399496 117.614,9.212 C117.025997,10.220005 116.732,11.7973226 116.732,13.944 C116.732,15.0453388 116.811333,15.9926627 116.97,16.786 C117.128667,17.5793373 117.343332,18.2279975 117.614,18.732 C117.884668,19.2360025 118.201998,19.6093321 118.566,19.852 C118.930002,20.0946679 119.317331,20.216 119.728,20.216 Z M126.448,21 L126.448,6.888 L129.416,6.888 C130.666673,6.888 131.618663,7.17733044 132.272,7.756 C132.925337,8.33466956 133.252,9.1839944 133.252,10.304 C133.252,11.0133369 133.093335,11.6479972 132.776,12.208 C132.458665,12.7680028 131.95467,13.2066651 131.264,13.524 C132.178671,13.7853346 132.845998,14.2053304 133.266,14.784 C133.686002,15.3626696 133.896,16.081329 133.896,16.94 C133.896,18.340007 133.494671,19.3666634 132.692,20.02 C131.889329,20.6733366 130.816007,21 129.472,21 L126.448,21 Z M127.736,7.924 L127.736,13.16 L129.36,13.16 C130.144004,13.16 130.778664,12.9406689 131.264,12.502 C131.749336,12.0633311 131.992,11.3493383 131.992,10.36 C131.992,9.46399552 131.758669,8.83400182 131.292,8.47 C130.825331,8.10599818 130.181337,7.924 129.36,7.924 L127.736,7.924 Z M127.736,14.14 L127.736,19.992 L129.472,19.992 C130.386671,19.992 131.13333,19.7726689 131.712,19.334 C132.29067,18.8953311 132.58,18.1253388 132.58,17.024 C132.58,15.9973282 132.314003,15.2600022 131.782,14.812 C131.249997,14.3639978 130.470672,14.14 129.444,14.14 L127.736,14.14 Z M139.832,21.28 C139.215997,21.28 138.646669,21.1260015 138.124,20.818 C137.601331,20.5099985 137.148669,20.0573363 136.766,19.46 C136.383331,18.8626637 136.080001,18.1113379 135.856,17.206 C135.631999,16.3006621 135.52,15.2413394 135.52,14.028 C135.52,12.8519941 135.631999,11.8020046 135.856,10.878 C136.080001,9.95399538 136.383331,9.17933646 136.766,8.554 C137.148669,7.92866354 137.601331,7.44800168 138.124,7.112 C138.646669,6.77599832 139.215997,6.608 139.832,6.608 C140.448003,6.608 141.017331,6.75733184 141.54,7.056 C142.062669,7.35466816 142.515331,7.8073303 142.898,8.414 C143.280669,9.0206697 143.583999,9.77666214 143.808,10.682 C144.032001,11.5873379 144.144,12.6466606 144.144,13.86 C144.144,15.0360059 144.032001,16.0813288 143.808,16.996 C143.583999,17.9106712 143.280669,18.6853302 142.898,19.32 C142.515331,19.9546698 142.062669,20.4399983 141.54,20.776 C141.017331,21.1120017 140.448003,21.28 139.832,21.28 Z M139.832,20.216 C140.653337,20.216 141.357997,19.7026718 141.946,18.676 C142.534003,17.6493282 142.828,16.0720106 142.828,13.944 C142.828,12.8426612 142.748667,11.8953373 142.59,11.102 C142.431333,10.3086627 142.216668,9.66000252 141.946,9.156 C141.675332,8.65199748 141.358002,8.2833345 140.994,8.05 C140.629998,7.8166655 140.242669,7.7 139.832,7.7 C139.010663,7.7 138.306003,8.20399496 137.718,9.212 C137.129997,10.220005 136.836,11.7973226 136.836,13.944 C136.836,15.0453388 136.915333,15.9926627 137.074,16.786 C137.232667,17.5793373 137.447332,18.2279975 137.718,18.732 C137.988668,19.2360025 138.305998,19.6093321 138.67,19.852 C139.034002,20.0946679 139.421331,20.216 139.832,20.216 Z M150.472,20.216 C151.368004,20.216 152.086664,19.6793387 152.628,18.606 C153.169336,17.5326613 153.44,15.8760112 153.44,13.636 C153.44,11.769324 153.206669,10.3226718 152.74,9.296 C152.273331,8.2693282 151.629337,7.756 150.808,7.756 C150.490665,7.756 150.187335,7.83533254 149.898,7.994 C149.608665,8.15266746 149.338001,8.36266536 149.086,8.624 C148.833999,8.88533464 148.605334,9.18866494 148.4,9.534 C148.194666,9.87933506 148.017334,10.2386648 147.868,10.612 L147.868,18.508 C148.148001,19.0866696 148.493331,19.5159986 148.904,19.796 C149.314669,20.0760014 149.83733,20.216 150.472,20.216 Z M150.388,21.252 C149.846664,21.252 149.356669,21.1353345 148.918,20.902 C148.479331,20.6686655 148.129335,20.3746684 147.868,20.02 L147.868,25.368 L146.552,25.368 L146.552,6.888 L147.7,6.888 L147.812,9.212 C148.129335,8.53999664 148.549331,7.93800266 149.072,7.406 C149.594669,6.87399734 150.247996,6.608 151.032,6.608 C151.61067,6.608 152.133331,6.77599832 152.6,7.112 C153.066669,7.44800168 153.458665,7.9193303 153.776,8.526 C154.093335,9.1326697 154.335999,9.86066242 154.504,10.71 C154.672001,11.5593376 154.756,12.4973282 154.756,13.524 C154.756,16.1186796 154.354671,18.0553269 153.552,19.334 C152.749329,20.6126731 151.694673,21.252 150.388,21.252 Z M158.592,21 L157.276,21 L157.276,6.888 L158.592,6.888 L158.592,13.524 L163.324,6.888 L164.612,6.888 L159.964,13.44 L164.948,21 L163.492,21 L158.592,13.692 L158.592,21 Z M173.152,11.172 C173.152,10.7986648 173.161333,10.4580015 173.18,10.15 C173.198667,9.84199846 173.226666,9.53866816 173.264,9.24 L173.18,9.24 C173.086666,9.55733492 172.974667,9.86066522 172.844,10.15 C172.713333,10.4393348 172.573334,10.7426651 172.424,11.06 L167.832,21 L166.712,21 L166.712,6.888 L167.944,6.888 L167.944,16.688 C167.944,17.0613352 167.934667,17.4066651 167.916,17.724 C167.897333,18.0413349 167.869334,18.3586651 167.832,18.676 L167.916,18.676 C168.009334,18.3586651 168.121333,18.0460015 168.252,17.738 C168.382667,17.4299985 168.522666,17.1173349 168.672,16.8 L173.264,6.888 L174.412,6.888 L174.412,21 L173.152,21 L173.152,11.172 Z" id="Яндекс-Переговорки-Copy" fill="#000000"></path>
            </g>
        </g>
    </g>
</svg>

<svg width="175" height="26" xmlns="http://www.w3.org/2000/svg"><g fill="none" fill-rule="evenodd"><path d="M6.468 13.328L3.052 21H.56l3.752-8.204a5.335 5.335 0 0 1-2.128-1.974c-.541-.868-.812-2.049-.812-3.542 0-1.045.154-1.965.462-2.758.308-.793.728-1.451 1.26-1.974a5.18 5.18 0 0 1 1.862-1.176A6.427 6.427 0 0 1 7.196.98h3.22V21H8.26v-7.672H6.468zM8.26 2.8H7.112c-.43 0-.85.08-1.26.238-.41.159-.775.41-1.092.756-.317.345-.574.803-.77 1.372-.196.57-.294 1.274-.294 2.114 0 .803.089 1.475.266 2.016.177.541.42.98.728 1.316a2.56 2.56 0 0 0 1.092.714c.42.14.863.21 1.33.21H8.26V2.8z" fill="#FF3029"/><path d="M32.032 23.772h-1.96V21h-6.048v2.772h-1.96v-4.564h.868c.317-.747.57-1.573.756-2.478.187-.905.331-1.839.434-2.8.103-.961.168-1.941.196-2.94.028-.999.042-1.965.042-2.898V6.888h6.552v12.32h1.12v4.564zm9.492-3.724a5.33 5.33 0 0 1-1.54.84 5.747 5.747 0 0 1-1.932.308c-1.456 0-2.604-.565-3.444-1.694-.84-1.13-1.26-2.786-1.26-4.97 0-1.139.08-2.184.238-3.136.159-.952.41-1.778.756-2.478.345-.7.789-1.246 1.33-1.638.541-.392 1.185-.588 1.932-.588.579 0 1.11.117 1.596.35.485.233.896.611 1.232 1.134.336.523.597 1.2.784 2.03.187.83.28 1.843.28 3.038v1.204h-5.88c0 1.605.22 2.819.658 3.64.439.821 1.097 1.232 1.974 1.232.616 0 1.162-.107 1.638-.322.476-.215.854-.425 1.134-.63l.504 1.68zm-20.72-13.16V21h-2.156v-6.328H15.4V21h-2.184V6.888H15.4v5.992h3.248V6.888h2.156zm25.116 7.084V21h-2.184V6.888h2.184v6.524l3.388-6.524h2.212l-3.5 6.636L52.024 21h-2.38l-3.724-7.028zm11.228 7.224c-1.512 0-2.697-.602-3.556-1.806-.859-1.204-1.288-3.02-1.288-5.446 0-1.101.107-2.1.322-2.996.215-.896.532-1.657.952-2.282.42-.625.943-1.11 1.568-1.456.625-.345 1.349-.518 2.17-.518.635 0 1.148.07 1.54.21.392.14.747.313 1.064.518l-.308 2.072a4.747 4.747 0 0 0-1.05-.686 2.866 2.866 0 0 0-1.274-.294c-.784 0-1.428.439-1.932 1.316s-.756 2.212-.756 4.004c0 1.773.21 3.14.63 4.102.42.961 1.078 1.442 1.974 1.442.541 0 1.008-.089 1.4-.266.392-.177.719-.378.98-.602l.504 1.624a4.804 4.804 0 0 1-1.26.77c-.467.196-1.027.294-1.68.294zM28.756 8.652H26.32v.252c0 .747-.014 1.563-.042 2.45a38.626 38.626 0 0 1-.182 2.702 31.906 31.906 0 0 1-.392 2.702 13.208 13.208 0 0 1-.7 2.45h3.752V8.652zm8.848-.168c-.672 0-1.148.378-1.428 1.134-.28.756-.457 1.769-.532 3.038h3.612c0-.597-.028-1.153-.084-1.666a6.686 6.686 0 0 0-.266-1.33c-.121-.373-.29-.663-.504-.868a1.11 1.11 0 0 0-.798-.308zm36.568-6.356h-5.964V21h-1.4V.98h8.764V21h-1.4V2.128zm5.124 12.04c.037 1.941.308 3.42.812 4.438.504 1.017 1.27 1.526 2.296 1.526.467 0 .877-.075 1.232-.224.355-.15.653-.327.896-.532a3.12 3.12 0 0 0 .728-.756l.42 1.064a3.355 3.355 0 0 1-.812.812c-.28.205-.625.387-1.036.546-.41.159-.896.238-1.456.238-1.493 0-2.595-.644-3.304-1.932-.71-1.288-1.064-3.09-1.064-5.404 0-1.157.103-2.189.308-3.094.205-.905.49-1.675.854-2.31s.798-1.115 1.302-1.442a2.977 2.977 0 0 1 1.652-.49c.616 0 1.167.159 1.652.476.485.317.887.793 1.204 1.428.317.635.541 1.423.672 2.366.13.943.14 2.04.028 3.29h-6.384zM82.124 7.7c-.747 0-1.386.462-1.918 1.386-.532.924-.826 2.273-.882 4.046h5.124c.112-1.885-.07-3.262-.546-4.13-.476-.868-1.069-1.302-1.778-1.302zm9.968 12.516c.896 0 1.615-.537 2.156-1.61.541-1.073.812-2.73.812-4.97 0-1.867-.233-3.313-.7-4.34-.467-1.027-1.11-1.54-1.932-1.54-.317 0-.62.08-.91.238-.29.159-.56.369-.812.63s-.48.565-.686.91a7.706 7.706 0 0 0-.532 1.078v7.896c.28.579.625 1.008 1.036 1.288.41.28.933.42 1.568.42zm-.084 1.036a3.08 3.08 0 0 1-1.47-.35 3.064 3.064 0 0 1-1.05-.882v5.348h-1.316V6.888h1.148l.112 2.324a6.551 6.551 0 0 1 1.26-1.806c.523-.532 1.176-.798 1.96-.798a2.62 2.62 0 0 1 1.568.504c.467.336.859.807 1.176 1.414.317.607.56 1.335.728 2.184.168.85.252 1.787.252 2.814 0 2.595-.401 4.531-1.204 5.81-.803 1.279-1.857 1.918-3.164 1.918zm7.448-7.084c.037 1.941.308 3.42.812 4.438.504 1.017 1.27 1.526 2.296 1.526.467 0 .877-.075 1.232-.224.355-.15.653-.327.896-.532a3.12 3.12 0 0 0 .728-.756l.42 1.064a3.355 3.355 0 0 1-.812.812c-.28.205-.625.387-1.036.546-.41.159-.896.238-1.456.238-1.493 0-2.595-.644-3.304-1.932-.71-1.288-1.064-3.09-1.064-5.404 0-1.157.103-2.189.308-3.094.205-.905.49-1.675.854-2.31s.798-1.115 1.302-1.442a2.977 2.977 0 0 1 1.652-.49c.616 0 1.167.159 1.652.476.485.317.887.793 1.204 1.428.317.635.541 1.423.672 2.366.13.943.14 2.04.028 3.29h-6.384zm2.828-6.468c-.747 0-1.386.462-1.918 1.386-.532.924-.826 2.273-.882 4.046h5.124c.112-1.885-.07-3.262-.546-4.13-.476-.868-1.069-1.302-1.778-1.302zm7.336.28V21h-1.288V6.888h5.964V7.98h-4.676zm10.108 13.3a3.304 3.304 0 0 1-1.708-.462c-.523-.308-.975-.76-1.358-1.358-.383-.597-.686-1.349-.91-2.254-.224-.905-.336-1.965-.336-3.178 0-1.176.112-2.226.336-3.15.224-.924.527-1.699.91-2.324.383-.625.835-1.106 1.358-1.442a3.097 3.097 0 0 1 1.708-.504c.616 0 1.185.15 1.708.448.523.299.975.751 1.358 1.358.383.607.686 1.363.91 2.268.224.905.336 1.965.336 3.178 0 1.176-.112 2.221-.336 3.136-.224.915-.527 1.69-.91 2.324-.383.635-.835 1.12-1.358 1.456a3.097 3.097 0 0 1-1.708.504zm0-1.064c.821 0 1.526-.513 2.114-1.54.588-1.027.882-2.604.882-4.732 0-1.101-.08-2.049-.238-2.842-.159-.793-.373-1.442-.644-1.946-.27-.504-.588-.873-.952-1.106a2.116 2.116 0 0 0-1.162-.35c-.821 0-1.526.504-2.114 1.512-.588 1.008-.882 2.585-.882 4.732 0 1.101.08 2.049.238 2.842.159.793.373 1.442.644 1.946.27.504.588.877.952 1.12.364.243.751.364 1.162.364zm6.72.784V6.888h2.968c1.25 0 2.203.29 2.856.868.653.579.98 1.428.98 2.548 0 .71-.159 1.344-.476 1.904-.317.56-.821.999-1.512 1.316.915.261 1.582.681 2.002 1.26.42.579.63 1.297.63 2.156 0 1.4-.401 2.427-1.204 3.08-.803.653-1.876.98-3.22.98h-3.024zm1.288-13.076v5.236h1.624c.784 0 1.419-.22 1.904-.658.485-.439.728-1.153.728-2.142 0-.896-.233-1.526-.7-1.89-.467-.364-1.11-.546-1.932-.546h-1.624zm0 6.216v5.852h1.736c.915 0 1.661-.22 2.24-.658.579-.439.868-1.209.868-2.31 0-1.027-.266-1.764-.798-2.212-.532-.448-1.311-.672-2.338-.672h-1.708zm12.096 7.14a3.304 3.304 0 0 1-1.708-.462c-.523-.308-.975-.76-1.358-1.358-.383-.597-.686-1.349-.91-2.254-.224-.905-.336-1.965-.336-3.178 0-1.176.112-2.226.336-3.15.224-.924.527-1.699.91-2.324.383-.625.835-1.106 1.358-1.442a3.097 3.097 0 0 1 1.708-.504c.616 0 1.185.15 1.708.448.523.299.975.751 1.358 1.358.383.607.686 1.363.91 2.268.224.905.336 1.965.336 3.178 0 1.176-.112 2.221-.336 3.136-.224.915-.527 1.69-.91 2.324-.383.635-.835 1.12-1.358 1.456a3.097 3.097 0 0 1-1.708.504zm0-1.064c.821 0 1.526-.513 2.114-1.54.588-1.027.882-2.604.882-4.732 0-1.101-.08-2.049-.238-2.842-.159-.793-.373-1.442-.644-1.946-.27-.504-.588-.873-.952-1.106a2.116 2.116 0 0 0-1.162-.35c-.821 0-1.526.504-2.114 1.512-.588 1.008-.882 2.585-.882 4.732 0 1.101.08 2.049.238 2.842.159.793.373 1.442.644 1.946.27.504.588.877.952 1.12.364.243.751.364 1.162.364zm10.64 0c.896 0 1.615-.537 2.156-1.61.541-1.073.812-2.73.812-4.97 0-1.867-.233-3.313-.7-4.34-.467-1.027-1.11-1.54-1.932-1.54-.317 0-.62.08-.91.238-.29.159-.56.369-.812.63s-.48.565-.686.91a7.706 7.706 0 0 0-.532 1.078v7.896c.28.579.625 1.008 1.036 1.288.41.28.933.42 1.568.42zm-.084 1.036a3.08 3.08 0 0 1-1.47-.35 3.064 3.064 0 0 1-1.05-.882v5.348h-1.316V6.888h1.148l.112 2.324a6.551 6.551 0 0 1 1.26-1.806c.523-.532 1.176-.798 1.96-.798a2.62 2.62 0 0 1 1.568.504c.467.336.859.807 1.176 1.414.317.607.56 1.335.728 2.184.168.85.252 1.787.252 2.814 0 2.595-.401 4.531-1.204 5.81-.803 1.279-1.857 1.918-3.164 1.918zm8.204-.252h-1.316V6.888h1.316v6.636l4.732-6.636h1.288l-4.648 6.552 4.984 7.56h-1.456l-4.9-7.308V21zm14.56-9.828c0-.373.01-.714.028-1.022.019-.308.047-.611.084-.91h-.084c-.093.317-.205.62-.336.91-.13.29-.27.593-.42.91L167.832 21h-1.12V6.888h1.232v9.8a16.377 16.377 0 0 1-.112 1.988h.084c.093-.317.205-.63.336-.938.13-.308.27-.62.42-.938l4.592-9.912h1.148V21h-1.26v-9.828z" fill="#000"/></g></svg>
